ui/StatusQ/src/assets/img/icons/travel-and-places.svg

<svg fill="none" height="24" viewBox="0 0 24 24" width="24" xmlns="http://www.w3.org/2000/svg"><g clip-rule="evenodd" fill="#000" fill-rule="evenodd"><path d="m13.2468 8.03149c-1.4924 0-2.7021 1.20978-2.7021 2.70211 0 1.4923 1.2097 2.7021 2.7021 2.7021 1.4923 0 2.7021-1.2098 2.7021-2.7021 0-1.49233-1.2098-2.70211-2.7021-2.70211zm-1.2021 2.70211c0-.6639.5382-1.20211 1.2021-1.20211s1.2021.53821 1.2021 1.20211-.5382 1.2021-1.2021 1.2021-1.2021-.5382-1.2021-1.2021z"/><path d="m9.03269 18.7958c-.25188.0322-.44958.2348-.49803.4836-.11916.6118-.41614 1.196-.89094 1.6699-.38471.3839-.93404.5993-1.42594.7323-.51331.1389-1.07555.2165-1.58189.2606-.51006.0444-.98479.0565-1.33065.0577-.17353.0006-.31609-.0015-.4162-.0039-.05009-.0011-.08965-.0023-.11726-.0033l-.03229-.0012-.0091-.0004-.00274-.0001-.23037-.0102c-.25912-.0115-.46657-.2185-.47807-.4771l-.01023-.2299-.00011-.0028-.00037-.0091-.00119-.0322c-.00095-.0275-.00217-.067-.00334-.117-.00233-.0999-.00447-.2422-.00387-.4154.00122-.3452.01337-.819.05786-1.3281.04417-.5054.12193-1.0665.26103-1.5789.13329-.4909.34905-1.0392.73376-1.4232.46925-.4683 1.04641-.7633 1.6516-.8849.25048-.0504.45301-.2512.48222-.5045.00377-.0327.00786-.0664.01231-.1011.06344-.495.19846-1.1916.48342-2.033.06488-.1916.13746-.3905.21865-.596.10414-.2637-.06815-.5595-.35077-.5871-.469-.0459-.93421-.0904-1.28227-.1235l-.86091-.0811c-.29997-.0281-.50734-.3124-.44207-.6059l.06147-.2765c.36641-1.64796 1.03143-2.78023 1.89607-3.50327.86613-.72427 1.85646-.97426 2.75253-.99863.72669-.01977 1.40747.10756 1.95057.25946.17876.04999.37161.00519.50713-.12145 2.3447-2.19087 5.0574-3.24116 7.1991-3.74439 1.1249-.26429 2.1012-.37991 2.7995-.42949.3494-.02481.6303-.03315.8264-.03518.0981-.00102.1751-.00046.229.00041.027.00044.0482.00095.0634.00138l.0183.00058.0057.00027.0019.00001.0014.00144v-.00139l.2316.0094c.2614.01061.4705.22022.4801.48114l.0085.23117.0001.00336.0002.00566.0005.01817c.0003.01511.0008.0362.0011.06302.0006.05363.0009.13021-.0005.22775-.0029.19503-.0123.47424-.0385.82174-.0524.69433-.1718 1.66528-.4401 2.7844-.5106 2.12988-1.5688 4.82804-3.7613 7.16584-.127.1354-.1718.3281-.1215.5066.1533.5435.2824 1.2264.2625 1.9556-.0245.8943-.2749 1.8827-1.0006 2.7472s-1.8589 1.5267-3.51 1.8924l-.277.0614c-.2942.0651-.5789-.1418-.6071-.4412l-.0813-.8593c-.0331-.3474-.0778-.8117-.1237-1.2798-.0268-.2734-.315-.4393-.5702-.3364-.2032.082-.3998.1555-.5891.2213-.8359.291-1.52681.4324-2.01778.501-.03101.0043-.06123.0083-.09063.0121zm-2.49511-8.5442c.19593.0199.38486-.0765.48736-.2444.32997-.54026.71738-1.10273 1.1721-1.68009.23763-.30172.07626-.75177-.30822-.75765-.05744-.00088-.1151-.00058-.1729.00099-.64591.01757-1.28275.19263-1.82864.64911-.3307.27654-.65573.67953-.93071 1.26769-.13667.29232.07379.61625.39549.64745l.34454.0335c.28685.028.57584.0566.84098.0834zm7.17472 7.164c.0267.2637.0553.551.0833.8361l.0335.3438c.0313.3211.3558.5312.6487.3948.5893-.2745.9931-.5989 1.2701-.9289.4574-.5449.6328-1.1805.6504-1.8252.0017-.0602.0019-.1203.0009-.1802-.0066-.3838-.4579-.5441-.7596-.306-.5797.4575-1.1437.8478-1.6848 1.1807-.1668.1026-.2623.2903-.2425.4849zm-4.86011-.1084c-.14704.0191-.29312-.0349-.39797-.1395l-1.63434-1.6312c-.10315-.103-.15725-.2458-.1405-.3905.00295-.0255.00616-.0519.00966-.0791.05189-.405.16604-1.0037.41646-1.7432.49962-1.4753 1.54711-3.52728 3.7523-5.72819 1.536-1.53305 3.2876-2.49567 4.9157-3.09889.2561-.09487.5349.04372.6504.29075.2486.53152.5928 1.02954 1.0324 1.46834.5155.51449 1.1126.89794 1.7497 1.15035.2642.10469.4202.39179.3228.65839-.6054 1.65727-1.5837 3.45535-3.1614 5.03005-2.2074 2.203-4.2533 3.2617-5.721 3.7724-.73549.256-1.32974.3758-1.7311.4318-.0216.003-.04263.0058-.06311.0085zm11.35711-11.69664c.1437-.73601.2166-1.37403.2531-1.85838.0095-.12568-.0946-.23001-.2206-.2211l-.0039.00028c-.5134.03645-1.1983.11273-1.9889.26938-.2981.05905-.4662.37596-.3138.63833.1571.27034.3515.52497.5834.7564.3231.3225.6914.57248 1.0845.74997.262.1183.5512-.05315.6062-.33488zm-13.62787 11.81684c-.68107-.6798-1.78532-.6798-2.46639 0-.10251.1023-.23341.3402-.34605.7551-.10683.3935-.17427.8577-.21441 1.317-.01448.1657-.02519.328-.033.4827-.01424.2822.2174.5134.50007.4991.15505-.0077.31768-.0184.48369-.0329.46013-.04.92526-.1074 1.31952-.214.41566-.1124.65407-.2431.75657-.3454.68108-.6797.68108-1.7818 0-2.4616z"/></g></svg>

<svg width="24" height="24" viewBox="0 0 24 24" fill="none" xmlns="http://www.w3.org/2000/svg">
<path fill-rule="evenodd" clip-rule="evenodd" d="M13.2468 8.03149C11.7544 8.03149 10.5447 9.24127 10.5447 10.7336C10.5447 12.2259 11.7544 13.4357 13.2468 13.4357C14.7391 13.4357 15.9489 12.2259 15.9489 10.7336C15.9489 9.24127 14.7391 8.03149 13.2468 8.03149ZM12.0447 10.7336C12.0447 10.0697 12.5829 9.53149 13.2468 9.53149C13.9107 9.53149 14.4489 10.0697 14.4489 10.7336C14.4489 11.3975 13.9107 11.9357 13.2468 11.9357C12.5829 11.9357 12.0447 11.3975 12.0447 10.7336Z" fill="black"/>
<path fill-rule="evenodd" clip-rule="evenodd" d="M9.03269 18.7958C8.78081 18.828 8.58311 19.0306 8.53466 19.2794C8.4155 19.8912 8.11852 20.4754 7.64372 20.9493C7.25901 21.3332 6.70968 21.5486 6.21778 21.6816C5.70447 21.8205 5.14223 21.8981 4.63589 21.9422C4.12583 21.9866 3.6511 21.9987 3.30524 21.9999C3.13171 22.0005 2.98915 21.9984 2.88904 21.996C2.83895 21.9949 2.79939 21.9937 2.77178 21.9927L2.73949 21.9915L2.73039 21.9911L2.72765 21.991L2.49728 21.9808C2.23816 21.9693 2.03071 21.7623 2.01921 21.5037L2.00898 21.2738L2.00887 21.271L2.0085 21.2619L2.00731 21.2297C2.00636 21.2022 2.00514 21.1627 2.00397 21.1127C2.00164 21.0128 1.9995 20.8705 2.0001 20.6973C2.00132 20.3521 2.01347 19.8783 2.05796 19.3692C2.10213 18.8638 2.17989 18.3027 2.31899 17.7903C2.45228 17.2994 2.66804 16.7511 3.05275 16.3671C3.522 15.8988 4.09916 15.6038 4.70435 15.4822C4.95483 15.4318 5.15736 15.231 5.18657 14.9777C5.19034 14.945 5.19443 14.9113 5.19888 14.8766C5.26232 14.3816 5.39734 13.685 5.6823 12.8436C5.74718 12.652 5.81976 12.4531 5.90095 12.2476C6.00509 11.9839 5.8328 11.6881 5.55018 11.6605C5.08118 11.6146 4.61597 11.5701 4.26791 11.537L3.407 11.4559C3.10703 11.4278 2.89966 11.1435 2.96493 10.85L3.0264 10.5735C3.39281 8.92554 4.05783 7.79327 4.92247 7.07023C5.7886 6.34596 6.77893 6.09597 7.675 6.0716C8.40169 6.05183 9.08247 6.17916 9.62557 6.33106C9.80433 6.38105 9.99718 6.33625 10.1327 6.20961C12.4774 4.01874 15.1901 2.96845 17.3318 2.46522C18.4567 2.20093 19.433 2.08531 20.1313 2.03573C20.4807 2.01092 20.7616 2.00258 20.9577 2.00055C21.0558 1.99953 21.1328 2.00009 21.1867 2.00096C21.2137 2.0014 21.2349 2.00191 21.2501 2.00234L21.2684 2.00292L21.2741 2.00319L21.276 2.0032L21.2774 2.00464L21.2774 2.00325L21.509 2.01265C21.7704 2.02326 21.9795 2.23287 21.9891 2.49379L21.9976 2.72496L21.9977 2.72832L21.9979 2.73398L21.9984 2.75215C21.9987 2.76726 21.9992 2.78835 21.9995 2.81517C22.0001 2.8688 22.0004 2.94538 21.999 3.04292C21.9961 3.23795 21.9867 3.51716 21.9605 3.86466C21.9081 4.55899 21.7887 5.52994 21.5204 6.64906C21.0098 8.77894 19.9516 11.4771 17.7591 13.8149C17.6321 13.9503 17.5873 14.143 17.6376 14.3215C17.7909 14.865 17.92 15.5479 17.9001 16.2771C17.8756 17.1714 17.6252 18.1598 16.8995 19.0243C16.1738 19.8888 15.0406 20.551 13.3895 20.9167L13.1125 20.9781C12.8183 21.0432 12.5336 20.8363 12.5054 20.5369L12.4241 19.6776C12.391 19.3302 12.3463 18.8659 12.3004 18.3978C12.2736 18.1244 11.9854 17.9585 11.7302 18.0614C11.527 18.1434 11.3304 18.2169 11.1411 18.2827C10.3052 18.5737 9.61429 18.7151 9.12332 18.7837C9.09231 18.788 9.06209 18.792 9.03269 18.7958ZM6.53758 10.2516C6.73351 10.2715 6.92244 10.1751 7.02494 10.0072C7.35491 9.46694 7.74232 8.90447 8.19704 8.32711C8.43467 8.02539 8.2733 7.57534 7.88882 7.56946C7.83138 7.56858 7.77372 7.56888 7.71592 7.57045C7.07001 7.58802 6.43317 7.76308 5.88728 8.21956C5.55658 8.4961 5.23155 8.89909 4.95657 9.48725C4.8199 9.77957 5.03036 10.1035 5.35206 10.1347L5.6966 10.1682C5.98345 10.1962 6.27244 10.2248 6.53758 10.2516ZM13.7123 17.4156C13.739 17.6793 13.7676 17.9666 13.7956 18.2517L13.8291 18.5955C13.8604 18.9166 14.1849 19.1267 14.4778 18.9903C15.0671 18.7158 15.4709 18.3914 15.7479 18.0614C16.2053 17.5165 16.3807 16.8809 16.3983 16.2362C16.4 16.176 16.4002 16.1159 16.3992 16.056C16.3926 15.6722 15.9413 15.5119 15.6396 15.75C15.0599 16.2075 14.4959 16.5978 13.9548 16.9307C13.788 17.0333 13.6925 17.221 13.7123 17.4156ZM8.85219 17.3072C8.70515 17.3263 8.55907 17.2723 8.45422 17.1677L6.81988 15.5365C6.71673 15.4335 6.66263 15.2907 6.67938 15.146C6.68233 15.1205 6.68554 15.0941 6.68904 15.0669C6.74093 14.6619 6.85508 14.0632 7.1055 13.3237C7.60512 11.8484 8.65261 9.79642 10.8578 7.59551C12.3938 6.06246 14.1454 5.09984 15.7735 4.49662C16.0296 4.40175 16.3084 4.54034 16.4239 4.78737C16.6725 5.31889 17.0167 5.81691 17.4563 6.25571C17.9718 6.7702 18.5689 7.15365 19.206 7.40606C19.4702 7.51075 19.6262 7.79785 19.5288 8.06445C18.9234 9.72172 17.9451 11.5198 16.3674 13.0945C14.16 15.2975 12.1141 16.3562 10.6464 16.8669C9.91091 17.1229 9.31666 17.2427 8.9153 17.2987C8.8937 17.3017 8.87267 17.3045 8.85219 17.3072ZM20.2093 5.61056C20.353 4.87455 20.4259 4.23653 20.4624 3.75218C20.4719 3.6265 20.3678 3.52217 20.2418 3.53108L20.2379 3.53136C19.7245 3.56781 19.0396 3.64409 18.249 3.80074C17.9509 3.85979 17.7828 4.1767 17.9352 4.43907C18.0923 4.70941 18.2867 4.96404 18.5186 5.19547C18.8417 5.51797 19.21 5.76795 19.6031 5.94544C19.8651 6.06374 20.1543 5.89229 20.2093 5.61056ZM6.58143 17.4274C5.90036 16.7476 4.79611 16.7476 4.11504 17.4274C4.01253 17.5297 3.88163 17.7676 3.76899 18.1825C3.66216 18.576 3.59472 19.0402 3.55458 19.4995C3.5401 19.6652 3.52939 19.8275 3.52158 19.9822C3.50734 20.2644 3.73898 20.4956 4.02165 20.4813C4.1767 20.4736 4.33933 20.4629 4.50534 20.4484C4.96547 20.4084 5.4306 20.341 5.82486 20.2344C6.24052 20.122 6.47893 19.9913 6.58143 19.889C7.26251 19.2093 7.26251 18.1072 6.58143 17.4274Z" fill="black"/>
</svg>
